X:104
%%vocalfont Baskerville10Pro 11
%%pagewidth 7in
%%staffscale 0.9
T:It was a lover and his lass.
M:2/4
L:1/8
K:F
%%score 1 2
V:1 clef-treble
V:2 clef-bass octave=-1
V:1
F|A>Bcc&F3C|BAG G/A/&D/E/F FE|BB/c/ dd/e/&D3B|f3e/d/&A2x2|
w:It was a lover* and his lass, With a hey, with a ho, with a hey non ne
V:2
z|FDA,A|GF cC|G3G,|DC/B,/ Az|
V:1
cA/B/ c2-&x3F/E/|cB/A/ B[CEG]&D3x|[A,F]3 :||: c|c[Fc][Fd][Fc]|
w:no, And a hey* non ne no ni no. That o'er the green corn
V:2
z2zA,|B,3C|(F2F,) :||:z|zABA|
V:1
B[FA][FG][EG]&D/E/x3|[Ad]2=BG&D2-D2|[Gc]2Ac&C2-C2|[cf]2dB&F2-F2|[FBd][Ac] [DB][CA]|
w:field, did pass, In Spring time, in Spring time, in Spring time; The on-ly pret-ty
V:2
GFcC|(F2G2)|(E2F2)|(A,2_B,)D|F3F|
V:1
[Gc]2AF&C2-C2|BAG [EGc]&D2Ex|[Fc]/B/A/G/ F [Acf]|[Bf]/e/d/c/ B [FBd]|
w:ring time, When birds do sing, Hey ding a ding a ding, Hey ding a ding a ding, Hey
V:2
(E2F)A|G2cc/B/|A2zF/E/|D2zB,/A,/|
V:1
[GBd]/c/B/A/ G[DGB]|A>A GG&GFFE|F3:||
w:ding a ding a ding, Sweet lov-ers love the Spring.
V:2
G,2zG|c2[CB]2|([FA]2F,):|| 

